ui/StatusQ/src/assets/img/icons/tiny/message/warning.svg

<svg fill="none" height="17" viewBox="0 0 16 17" width="16" xmlns="http://www.w3.org/2000/svg"><g fill="#000"><path d="m8 3.5c-.27614 0-.5.22386-.5.5v6c0 .2761.22386.5.5.5s.5-.2239.5-.5v-6c0-.27614-.22386-.5-.5-.5z"/><path d="m8 13.25c.41421 0 .75-.3358.75-.75s-.33579-.75-.75-.75-.75.3358-.75.75.33579.75.75.75z"/></g></svg>

<svg width="16" height="17" viewBox="0 0 16 17" fill="none" xmlns="http://www.w3.org/2000/svg">
<path d="M8 3.5C7.72386 3.5 7.5 3.72386 7.5 4V10C7.5 10.2761 7.72386 10.5 8 10.5C8.27614 10.5 8.5 10.2761 8.5 10V4C8.5 3.72386 8.27614 3.5 8 3.5Z" fill="black"/>
<path d="M8 13.25C8.41421 13.25 8.75 12.9142 8.75 12.5C8.75 12.0858 8.41421 11.75 8 11.75C7.58579 11.75 7.25 12.0858 7.25 12.5C7.25 12.9142 7.58579 13.25 8 13.25Z" fill="black"/>
</svg>
